X: 16221
T: Wallaces March
R: march
B: James Oswald "The Caledonian Pocket Companion" v.1 b.6 p.22 #1
S: https://ia800501.us.archive.org/18/items/caledonianpocket01rugg/caledonianpocket01rugg_bw.pdf
Z: 2020 John Chambers <jc:trillian.mit.edu>
M: C
L: 1/8
K: G
%%slurgraces 1
%%graceslurs 1
D |\
G2g2 (dc)(BA) | G4 {E}D3E | G2g2 (ed)(cB) | =f>g {fg}a2 A3B |\
G2(gf) (ed)(cB) | (cB)(cd) e2TB2 | (cB)(AG) (FG)(AB) | {A2}G4 {E}D3 :|
|: d |\
B2(c/B/A/G/) c2(d/c/B/A/) | G2(G/F/E) D3d | B2(c/B/A/G/) c2(d/c/B/A/) | =f2 (f/g/a) A3d | (BG)(AB) (cA)(Bc) |
d2(e/d/c/B/) g2(B/c/d) | (cB)(AG) (FG)(AB) | {A2}G4 {E}D3 :: E | Ggeg dgBA | GBGE D3E |
Ggeg dgBG | =fgac A3B | Ggeg dgBg | cgdgegBg | (cB)(AG) (FG)(AB) |
{A2}G4 {E}D3 :: d | (Bd)(BG) (3(ced) (3(cBA) | G2(G/F/E) D2(dc) | (3(Bdc) (3(BAG) (3(ced) (3(cBA) |
(=f/g/a) (f/g/a) A2(dc) | (BGAB) (cABc) | dg (f/g/a) g2Bd | cABG Fadf | g4 G2 :|


